X:1161
T:Parsons upon Dorothy.
C:John Malchair's Third Collection of Tunes
F:https://www.vwml.org/record/Malchair/3619/p116
F:www.vwml.org/topics/historic-dance-and-tune-books/Malchair
Z:Eric Conrad Feb 2020
N:NB1 Repeats added.
N:NB2 In the MS, only the third and fourth notes of strain B measure 1 were beamed.
W:As in Ed.1695. See an other at p.36.from Ed.1665.
W:Here the tune is more simple than in the much earlier edition. and different.
M:C|
L:1/4
K:Gm
P:A
|: "_NB1,2"D | GG A^F | BB Bd | c>B (A/B/)(c/A/) | B3 :|
P:B
|: d | c>B (A/B/)(c/A/) | BB Bd | c>B (A/B/)(c/A/) | B3 :|
P:C
|: A/B/ | cc cB/c/ | dd dc/B/ | AG A^F | G3 :|


